X: 42582
T: Where D'ye Come Frae?
R: reel
M: 4/4
K: Dminor
ADDE FAdB|AGFG A^cDA|B2dB cAFA|BAGF G2 G2|
Bddd fddd|cBAG FGAB|cdde fedA|BAd BAG^FG:|
|:B2 dBAB df|gfdc BABG|^F2 GA ^F2GA|B2 cBAG ^FD|
B2 cdfe dg|B2 gaag df|^f2 ga ^f2ga|Bag^f g2 g2:|

